docs/science/organic/Cholesterol.svg

<svg xmlns="http://www.w3.org/2000/svg" width="613.396" height="389.616" version="1.0" viewBox="0 0 614 390"><g stroke-linecap="round" font-family="Helvetica" font-size="16"><path stroke="#000" stroke-width="2.27" d="M271.76 339.98v-52.96M180.02 339.98v-52.96M317.61 207.49l-45.89-26.44M367.97 191.11l31.14 42.86"/><g stroke="#000" stroke-width="2.27"><path d="M319.2 267.17h-3.18M319.66 273.87h-4.09M320.11 280.58h-4.99M320.56 287.29h-5.9M321.02 294h-6.81"/></g><path stroke="#000" stroke-width="2.27" d="m317.61 207.49 50.36-16.38M271.76 287.02l45.85-26.56M180.02 287.02l-45.89-26.49M394.45 145.26h52.97M553.35 53.51 526.87 7.66M367.97 276.84l-50.36-16.38M134.13 366.43l45.89-26.45"/><path stroke="#000" d="m316.48 207.49-2.27-52.96h6.81l-2.27 52.96z"/><path stroke="#000" stroke-width="2.27" d="m271.72 181.05-45.85 26.52"/><g stroke="#000" stroke-width="2.27"><path d="m389.91 140.23 2.46-1.42M386.36 134.64l2.95-1.71M382.8 129.04l3.44-1.98M379.24 123.45l3.94-2.27M375.69 117.85l4.42-2.55M372.13 112.26l4.92-2.84M368.58 106.66l5.4-3.12M365.02 101.07l5.9-3.4"/></g><path stroke="#000" stroke-width="2.27" d="m447.42 145.26 26.48-45.89"/><g stroke="#000" stroke-width="2.27"><path d="m180.02 339.98 45.85 26.45M187.43 335.08l38.97 22.48"/></g><path stroke="#000" stroke-width="2.27" d="M553.35 53.51h52.96M399.11 233.97l-31.14 42.87"/><path stroke="#000" d="m178.88 287.02-2.27-53.01h6.81l-2.27 53.01z"/><path stroke="#000" stroke-width="2.27" d="m225.87 366.43 45.89-26.45M88.24 339.98l45.89 26.45M271.76 287.02l-45.89-26.49M526.87 99.37l26.48-45.86M473.9 99.37h52.97"/><path stroke="#000" d="M270.63 287.02 268.36 247h6.81l-2.27 40.02z"/><path stroke="#000" stroke-width="2.27" d="m367.97 191.11 26.48-45.85"/><path stroke="#000" d="m88.8 340.96-30.1 20-3.4-5.9L87.67 339z"/><g stroke="#000" stroke-width="2.27"><path d="M227.46 267.23h-3.18M227.91 273.92h-4.08M228.37 280.61h-5M228.82 287.31h-5.9M229.27 294h-6.8"/></g><path stroke="#000" stroke-width="2.27" d="M88.24 287.02v52.96M225.87 260.53l-45.85 26.49M225.87 207.57v52.96"/><g stroke="#000" stroke-width="2.27"><path d="M374.47 189.6v3.02M380.98 189.22V193M387.48 188.84v4.54M393.99 188.46v5.3M400.49 188.08v6.06M407 187.71v6.81"/></g><path stroke="#000" stroke-width="2.27" d="m134.13 260.53-45.89 26.49M317.61 260.46v-52.97"/><text x="336.439" y="381.502" font-family="Arial" font-size="32" transform="translate(-122 -59)">H</text><text x="381.951" y="302.012" font-family="Arial" font-size="32" transform="translate(-122 -59)">H</text><text x="428.276" y="381.422" font-family="Arial" font-size="32" transform="translate(-122 -59)">H</text><text x="531.998" y="261.963" font-family="Arial" font-size="32" transform="translate(-122 -59)">H</text><text x="128.739" y="434.517" transform="translate(-122 -59)" xml:space="preserve" style="font-size:17.8208px;font-family:Arial;-inkscape-font-specification:&quot;Arial, Normal&quot;;fill:#00f;stroke:#000;stroke-width:.249245;stroke-linecap:round;stroke-linejoin:round;paint-order:fill markers stroke"><tspan x="128.739" y="434.517" style="font-style:normal;font-variant:normal;font-weight:400;font-stretch:normal;font-size:32px;font-family:Arial;-inkscape-font-specification:&quot;Arial, Normal&quot;;font-variant-ligatures:normal;font-variant-caps:normal;font-variant-numeric:normal;font-variant-east-asian:normal;fill:#000;fill-opacity:1;stroke-width:.249245">HO</tspan></text></g></svg>

<svg viewBox="0 0 614 390"><g stroke-linecap="round" font-family="Helvetica" font-size="16"><path stroke="#000" stroke-width="2.3" d="M271.8 340v-53M180 340v-53m137.6-79.5L271.7 181m96.3 10 31 43m-79.8 33.2H316m3.7 6.7h-4.1m4.5 6.7h-5m5.5 6.7h-6m6.4 6.7h-6.8m3.4-86.5L368 191m-96.2 96 45.8-26.6M180 287l-45.9-26.5m260.4-115.2h53m105.9-91.8L526.9 7.7m-159 269.1-50.3-16.3m-183.5 106 46-26.5"/><path stroke="#000" d="m316.5 207.5-2.3-53h6.8l-2.2 53z"/><path stroke="#000" stroke-width="2.3" d="M271.7 181 226 207.7m164-67.5 2.4-1.4m-6-4.2 3-1.7m-6.6-3.9 3.4-2m-7-3.5 4-2.3m-7.5-3.4 4.4-2.5m-8-3 5-2.9m-8.5-2.7 5.4-3.2m-9-2.4 6-3.4m76.4 47.6 26.5-46M180 340l45.9 26.4m-38.5-31.3 39 22.5m327-304.1h53M399 234l-31 42.8"/><path stroke="#000" d="m178.9 287-2.3-53h6.8l-2.3 53z"/><path stroke="#000" stroke-width="2.3" d="m225.9 366.4 45.9-26.4m-183.6 0 46 26.4M271.7 287l-46-26.5m301-161.1 26.6-45.9m-79.5 45.9h53"/><path stroke="#000" d="m270.6 287-2.2-40h6.8l-2.3 40zM88.8 341l-30.1 20-3.4-6 32.4-16z"/><path stroke="#000" stroke-width="2.3" d="M227.5 267.2h-3.2m3.6 6.7h-4m4.5 6.7h-5m5.4 6.7H223m6.4 6.7h-6.8m-134.4-7v53M226 260.5 180 287m45.9-79.4v53m148.6-71v3m6.5-3.4v3.8m6.5-4.2v4.6m6.5-5v5.4m6.5-5.7v6m6.5-6.4v6.8m-272.9 66L88.2 287m229.4-26.5v-53"/><text x="336.4" y="381.5" font-family="Arial" font-size="32" transform="translate(-122 -59)">H</text><text x="382" y="302" font-family="Arial" font-size="32" transform="translate(-122 -59)">H</text><text x="428.3" y="381.4" font-family="Arial" font-size="32" transform="translate(-122 -59)">H</text><text x="532" y="262" font-family="Arial" font-size="32" transform="translate(-122 -59)">H</text><text xml:space="preserve" x="128.7" y="434.5" style="font-size:17.8208px;font-family:Arial;-inkscape-font-specification:&quot;Arial, Normal&quot;;fill:#00f;stroke:#000;stroke-width:.249245;stroke-linecap:round;stroke-linejoin:round;paint-order:fill markers stroke" transform="translate(-122 -59)"><tspan x="128.7" y="434.5" style="font-style:normal;font-variant:normal;font-weight:400;font-stretch:normal;font-size:32px;font-family:Arial;-inkscape-font-specification:&quot;Arial, Normal&quot;;font-variant-ligatures:normal;font-variant-caps:normal;font-variant-numeric:normal;font-variant-east-asian:normal;fill:#000;fill-opacity:1;stroke-width:.249245">HO</tspan></text></g></svg>
